components/Common/Svg/svgs/profits.svg

<svg
  width="40"
  height="40"
  viewBox="0 0 40 40"
  fill="none"
  xmlns="http://www.w3.org/2000/svg"
>
  <path
    d="M29.7084 27.6411C29.3493 27.2065 28.6564 26.8474 27.6359 26.5765V24.0884C28.0454 24.2647 28.3036 24.6049 28.3981 25.1088L30.0107 24.901C29.8973 24.2647 29.6454 23.7545 29.2485 23.3765C28.8517 22.9986 28.3162 22.7655 27.6359 22.6836V22.0537H26.7162V22.6836C25.9855 22.7529 25.3997 23.0301 24.965 23.5025C24.5241 23.975 24.3036 24.5608 24.3036 25.2537C24.3036 25.9403 24.4989 26.5262 24.8832 27.0049C25.2737 27.4836 25.8784 27.8427 26.7099 28.0821V30.7466C26.4832 30.6332 26.2753 30.4569 26.0863 30.2112C25.8973 29.9655 25.7713 29.6695 25.7021 29.3356L24.0391 29.512C24.165 30.3498 24.4611 30.9923 24.9147 31.4521C25.3745 31.912 25.9666 32.1828 26.7036 32.271V33.4301H27.6233V32.2395C28.4485 32.1199 29.0973 31.7986 29.5635 31.2695C30.0296 30.7403 30.2627 30.0978 30.2627 29.3293C30.2627 28.6427 30.08 28.0821 29.7084 27.6411ZM26.7099 26.2679C26.4328 26.1482 26.2312 25.9907 26.0926 25.8017C25.954 25.6065 25.891 25.3986 25.891 25.1781C25.891 24.9325 25.9666 24.7057 26.1115 24.5041C26.2627 24.3025 26.458 24.1576 26.7099 24.0695V26.2679ZM28.4107 30.3939C28.2091 30.6269 27.9509 30.7781 27.6359 30.8348V28.3529C28.0202 28.4663 28.291 28.6238 28.4611 28.8254C28.6312 29.0332 28.7131 29.2789 28.7131 29.5624C28.7131 29.8836 28.6123 30.1608 28.4107 30.3939Z"
    fill="black"
  ></path>
  <path
    d="M4.96484 16.3843V26.1921H9.09083V16.3843H4.96484ZM8.06406 25.1591H5.99791V17.4173H8.06406V25.1591Z"
    fill="black"
  ></path>
  <path
    d="M11.1562 13.2915V26.1923H15.2822V13.2915H11.1562ZM14.2555 25.1655H12.1893V14.3246H14.2555V25.1655Z"
    fill="black"
  ></path>
  <path
    d="M33.8657 22.948V4H29.7397V19.9055C29.0846 19.6913 28.3917 19.5591 27.6736 19.515V7.09921H23.5476V20.3276C22.7854 20.6992 22.0925 21.1843 21.4815 21.7575V10.1921H17.3555V26.1921H19.0563C18.9618 26.6961 18.9051 27.2126 18.9051 27.7417C18.9051 32.2961 22.609 36 27.1633 36C31.7177 36 35.4216 32.2961 35.4216 27.7417C35.4153 25.9528 34.8358 24.3024 33.8657 22.948ZM30.7728 5.03307H32.8389V21.7575C32.7822 21.7008 32.7193 21.6504 32.6626 21.6C32.5366 21.4866 32.4043 21.3732 32.272 21.2661C32.1334 21.1528 31.9885 21.0457 31.8374 20.9449C31.7555 20.8882 31.6673 20.8315 31.5791 20.7811C31.4594 20.7055 31.3397 20.6299 31.2137 20.5606C31.1256 20.5102 31.0311 20.4598 30.9366 20.4157C30.8799 20.378 30.8295 20.3465 30.7728 20.3213V5.03307ZM24.5744 8.12598H26.6405V19.4961C26.5649 19.5024 26.483 19.5087 26.4074 19.5213C26.3507 19.5276 26.3004 19.5276 26.2437 19.5339C26.0043 19.5591 25.7712 19.5969 25.5381 19.6409C25.4878 19.6535 25.4374 19.6661 25.3807 19.6787C25.198 19.7165 25.009 19.7669 24.8263 19.8236C24.757 19.8425 24.6941 19.8614 24.6248 19.8803C24.6185 19.8866 24.5996 19.8929 24.5744 19.8992V8.12598ZM19.7366 24.126C19.5728 24.4598 19.4279 24.8 19.3082 25.1591H18.3822V11.2252H20.4484V22.9417C20.4421 22.9543 20.4358 22.9669 20.4232 22.9795C20.3287 23.1118 20.2468 23.2441 20.1586 23.3764C20.1208 23.4394 20.083 23.4961 20.0452 23.5591C19.9633 23.6976 19.8878 23.8362 19.8122 23.9748C19.787 24.0252 19.7618 24.0756 19.7366 24.126ZM27.157 34.9669C23.1696 34.9669 19.9318 31.7228 19.9318 27.7417C19.9318 27.074 20.0326 26.4252 20.2027 25.8079C20.2594 25.6063 20.3224 25.4173 20.3917 25.222C20.398 25.1968 20.4106 25.178 20.4169 25.1528C20.4862 24.9701 20.5618 24.7937 20.65 24.6236C20.6626 24.5921 20.6815 24.5606 20.6941 24.5291C20.7759 24.3591 20.8704 24.1953 20.9649 24.0378C20.9838 24.0063 21.0027 23.9748 21.0216 23.9433C21.1224 23.7858 21.2295 23.6283 21.3429 23.4709C22.0988 22.4504 23.1067 21.6315 24.2846 21.1213C24.4862 21.0331 24.6941 20.9575 24.9019 20.8882C24.9271 20.8819 24.946 20.8693 24.9649 20.863C25.1791 20.7937 25.3996 20.737 25.6137 20.6929C25.6326 20.6866 25.6515 20.6803 25.6767 20.674C25.8909 20.6299 26.1114 20.5984 26.3255 20.5732C26.3507 20.5732 26.3759 20.5669 26.4074 20.5606C26.6531 20.5354 26.8988 20.5228 27.1507 20.5228C28.1397 20.5228 29.0783 20.7244 29.9413 21.0835L29.9917 21.1087C30.0295 21.1276 30.0673 21.1465 30.1051 21.1591C30.3381 21.2661 30.5649 21.3795 30.7854 21.5118C30.8421 21.5433 30.8988 21.5811 30.9492 21.6126C31.1633 21.7449 31.3775 21.8961 31.5791 22.0535C31.598 22.0724 31.6232 22.085 31.6421 22.1039C32.1082 22.4819 32.5366 22.9165 32.9019 23.4016C33.8216 24.611 34.3696 26.1165 34.3696 27.7543C34.3822 31.7291 31.1444 34.9669 27.157 34.9669Z"
    fill="black"
  ></path>
</svg>

<svg width="40" height="40" viewBox="0 0 40 40" fill="none" xmlns="http://www.w3.org/2000/svg"><path d="M29.708 27.641c-.359-.434-1.052-.794-2.072-1.064v-2.489c.41.177.668.517.762 1.02l1.613-.207c-.114-.636-.366-1.146-.762-1.524-.397-.378-.933-.611-1.613-.693v-.63h-.92v.63c-.73.069-1.316.346-1.751.819-.44.472-.661 1.058-.661 1.75 0 .687.195 1.273.58 1.752.39.479.994.838 1.826 1.077v2.665a1.82 1.82 0 0 1-.624-.536 2.126 2.126 0 0 1-.384-.875l-1.663.176c.126.838.422 1.48.876 1.94.46.46 1.052.73 1.789.819v1.16h.92V32.24c.825-.12 1.473-.441 1.94-.97.466-.53.699-1.172.699-1.94 0-.687-.183-1.248-.555-1.689Zm-2.998-1.373a1.457 1.457 0 0 1-.617-.466 1.05 1.05 0 0 1-.202-.624c0-.245.076-.472.22-.674.152-.202.347-.346.599-.434v2.198Zm1.7 4.126c-.2.233-.46.384-.774.44v-2.481c.384.113.655.27.825.472.17.208.252.454.252.737 0 .322-.1.599-.302.832ZM4.965 16.384v9.808H9.09v-9.808H4.965Zm3.1 8.775H5.997v-7.742h2.066v7.742ZM11.156 13.291v12.901h4.126v-12.9h-4.126Zm3.1 11.875h-2.067V14.325h2.066v10.84Z" fill="#000"/><path d="M33.866 22.948V4H29.74v15.905a8.273 8.273 0 0 0-2.066-.39V7.099h-4.126v13.229a8.404 8.404 0 0 0-2.066 1.43V10.191h-4.127v16h1.701a8.392 8.392 0 0 0-.15 1.55c0 4.554 3.703 8.258 8.257 8.258 4.555 0 8.259-3.704 8.259-8.258a8.252 8.252 0 0 0-1.556-4.794ZM30.773 5.033h2.066v16.724c-.057-.056-.12-.107-.176-.157a9.911 9.911 0 0 0-.391-.334 5.572 5.572 0 0 0-.693-.485c-.12-.075-.24-.151-.365-.22-.088-.05-.183-.101-.277-.145a1.101 1.101 0 0 0-.164-.095V5.033Zm-6.199 3.093h2.066v11.37c-.075.006-.157.013-.233.025-.056.007-.107.007-.163.013-.24.025-.473.063-.706.107l-.157.038a5.989 5.989 0 0 0-.555.145c-.069.018-.132.037-.201.056a.138.138 0 0 1-.05.02V8.125Zm-4.837 16a8.277 8.277 0 0 0-.429 1.033h-.926V11.225h2.066v11.717a.132.132 0 0 1-.025.038c-.094.132-.176.264-.264.396-.038.063-.076.12-.114.183-.082.139-.157.277-.233.416l-.075.151Zm7.42 10.84c-3.987 0-7.225-3.243-7.225-7.224a7.276 7.276 0 0 1 .46-2.52c.006-.025.019-.044.025-.07.07-.182.145-.358.233-.528.013-.032.032-.063.044-.095.082-.17.176-.334.27-.491l.058-.095a7.26 7.26 0 0 1 3.263-2.822c.201-.088.41-.163.617-.233.025-.006.044-.019.063-.025.214-.07.435-.126.649-.17a.793.793 0 0 1 .063-.019c.214-.044.434-.076.649-.1.025 0 .05-.007.081-.013a7.25 7.25 0 0 1 3.534.523l.05.025a6.943 6.943 0 0 1 .794.403c.057.031.114.07.164.1.214.133.428.284.63.442.019.018.044.031.063.05.466.378.895.813 1.26 1.298a7.162 7.162 0 0 1 1.468 4.352c.012 3.975-3.226 7.213-7.213 7.213Z" fill="#000"/></svg>
